X:1093
T:The Caledonian Maid.
M:2/4
L:1/8
Q:1/4=104
I: :|
N:bar 4 is printed |d2 {ed}c2 z/A/|
N:bar 12 is printed |f2 {gf}He2 a/g/|
Z:Jack Campin * www.campin.me.uk * 2009
K:D
A|dd  ff |aa e>f|gf ed|d2 {ed} c z/A/|dd ff|(a/^g/) (a/f/) e>d|c>d BB          |A2 z
A|g>e f>d|cd e>f|gf ed|f2 {gf}He a/g/|ff ee| d>f           e>g|ff (e/d/) (e/f/)|d2 z|]

